Papirus/64x64/apps/yast-vpn.svg

<svg width="64" height="64" version="1" xmlns="http://www.w3.org/2000/svg">
 <path d="m32 4.0000015c-7.179702 0-12.999999 5.820298-12.999999 12.999998v17h25.999998v-17c0-7.1797005-5.820297-12.999998-12.999999-12.999998zm0 5.9999995c3.932322 0 7 3.067677 7 6.999999v11h-14v-11c0-3.932322 3.067678-6.999999 7-6.999999z" style="opacity:.2"/>
 <rect transform="rotate(90)" x="54" y="-61" width="6" height="58" rx="3" ry="2.9" style="opacity:.2"/>
 <rect x="29" y="44" width="6" height="12" style="fill:#828282"/>
 <path d="m32 3.0000011c-7.179702 0-12.999999 5.8202979-12.999999 12.999999v17h25.999998v-17c0-7.179701-5.820297-12.999999-12.999999-12.999999zm0 5.9999997c3.932322 0 7 3.0676772 7 6.9999992v11h-14v-11c0-3.932322 3.067678-6.9999992 7-6.9999992z" style="fill:#e4e4e4"/>
 <rect transform="matrix(0,-1,-1,0,0,0)" x="-46" y="-49" width="24" height="34" rx="2.4" ry="2.429" style="opacity:.2"/>
 <rect transform="matrix(0,-1,-1,0,0,0)" x="-45" y="-49" width="24" height="34" rx="2.4" ry="2.429" style="fill:#fecd38"/>
 <rect x="15" y="25" width="34" height="16" rx="0" ry="0" style="fill:#ffffff;opacity:.3"/>
 <rect transform="rotate(90)" x="53" y="-61" width="6" height="58" rx="3" ry="2.9" style="fill:#828282"/>
 <rect x="22" y="51" width="20" height="10" style="fill:#afafb1"/>
 <rect x="22" y="61" width="20" height="1" style="opacity:.2"/>
 <rect x="22" y="51" width="20" height="1" style="fill:#ffffff;opacity:.2"/>
 <path d="m32 3c-7.179702 0-13 5.820299-13 13v1c0-7.179701 5.820298-13 13-13s13 5.820299 13 13v-1c0-7.179701-5.820298-13-13-13z" style="fill:#ffffff;opacity:.2"/>
</svg>

<svg xmlns="http://www.w3.org/2000/svg" width="64" height="64" version="1">
 <rect style="fill:#828282" width="6" height="12" x="29" y="44"/>
 <path style="opacity:0.2" d="M 32,4 C 24.8,4 19,9.8 19,17 V 34 H 45 V 17 C 45,9.8 39.2,4 32,4 Z M 32,10 C 35.9,10 39,13.1 39,17 V 28 H 25 V 17 C 25,13.1 28.1,10 32,10 Z"/>
 <path style="fill:#e4e4e4" d="m32 3c-7.2 0-13 5.8-13 13v17h26v-17c0-7.2-5.8-13-13-13zm0 6c3.9 0 7 3.1 7 7v11h-14v-11c0-3.9 3.1-7 7-7z"/>
 <rect style="opacity:0.2" width="34" height="24" x="15" y="22" rx="2.8" ry="2.8"/>
 <rect style="fill:#fecd38" width="34" height="24" x="15" y="21" rx="2.8" ry="2.8"/>
 <rect style="fill:#ffffff;opacity:0.3" width="34" height="16" x="15" y="25"/>
 <rect style="opacity:0.2" width="58" height="6" x="3" y="54" rx="3" ry="3"/>
 <rect style="fill:#828282" width="58" height="6" x="3" y="53" rx="3" ry="3"/>
 <rect style="fill:#afafb1" width="20" height="10" x="22" y="51"/>
 <rect style="opacity:0.2" width="20" height="1" x="22" y="61"/>
 <rect style="fill:#ffffff;opacity:0.2" width="20" height="1" x="22" y="51"/>
 <path style="fill:#ffffff;opacity:0.2" d="M 32,3 C 24.8,3 19,8.8 19,16 V 17 C 19,9.8 24.8,4 32,4 39.2,4 45,9.8 45,17 V 16 C 45,8.8 39.2,3 32,3 Z"/>
 <path style="fill:#ffffff;opacity:0.2" d="M 17.801 21 C 16.25 21 15 22.25 15 23.801 L 15 24.801 C 15 23.25 16.25 22 17.801 22 L 46.199 22 C 47.75 22 49 23.25 49 24.801 L 49 23.801 C 49 22.25 47.75 21 46.199 21 L 17.801 21 z"/>
</svg>
